src/assets/svg/ic_blocks.svg

<svg xmlns="http://www.w3.org/2000/svg" width="16" height="16">
    <path d="M1 5h4V1H1v4zm5 0h4V1H6v4zm-5 5h4V6H1v4zm5 0h4V6H6v4zm5-4v4h4V6h-4zM1 15h4v-4H1v4zm5 0h4v-4H6v4zm5 0h4v-4h-4v4z" fill="#3d464d"/>
</svg>

<?xml version="1.0" encoding="iso-8859-1"?>
<!-- Generator: Adobe Illustrator 16.0.4, SVG Export Plug-In . SVG Version: 6.00 Build 0)  -->
<!DOCTYPE svg PUBLIC "-//W3C//DTD SVG 1.1//EN" "http://www.w3.org/Graphics/SVG/1.1/DTD/svg11.dtd">
<svg version="1.1" id="artwork" xmlns="http://www.w3.org/2000/svg" xmlns:xlink="http://www.w3.org/1999/xlink" x="0px" y="0px"
	 width="16px" height="16px" viewBox="0 0 16 16" style="enable-background:new 0 0 16 16;" xml:space="preserve">
<g>
	<g>
		<path style="fill:#3D464D;" d="M1,5h4V1H1V5z M6,5h4V1H6V5z M1,10h4V6H1V10z M6,10h4V6H6V10z M11,6v4h4V6H11z M1,15h4v-4H1V15z
			 M6,15h4v-4H6V15z M11,15h4v-4h-4V15z"/>
	</g>
</g>
</svg>
